X:1
T:Title
%%score { ( 1 3 ) | ( 2 4 ) }
L:1/8
Q:1/4=96
M:4/4
K:Eb
V:1 treble nm="Grand Piano"
V:3 treble 
V:2 bass 
V:4 bass 
V:1
 E>D E[DF] G2 G2 | G>F GA [GB]4 | c>c cc BG[B,FA][B,EG] | [DF]4- [DF]-[A,DF][K:bass]G,F, | %4
w: J.~S.~Fearis * * * * *||||
 E>D E[K:treble][DF] [EG]2 [EG]2 | [EA]>[EA] [EA][EB] [Ec]4 | %6
w: ||
 [Ee]>[Ee] [Ed][Ec] [EB]<[B,EG] [A,DF]>[B,DG] | [G,E]6 z2 | [Ge]>[Ge] [Ge][Ge] [Ge][GB][EG][FA] | %9
w: |||
 [GB]>[_G=A] [=GB][_Ac] [GB]4 | c>c cc [=Ac][Ae][FAd][EAc] | z4 [FA]2 z2 | %12
w: |||
 [G,B,E]>[F,B,D][K:treble] [G,B,E][B,DF] [B,EG]2 [B,EG]2 | [A,EA]>[A,EA] [A,EA][EB] [Ec]4 | %14
w: ||
 [Ee]>[Ee] [Ed][Ec] [EB]<[EG] [DF]>[DG] | E8 |] %16
w: ||
V:2
 [E,G,B,]>[B,,F,B,] [E,G,B,][B,,B,] [E,B,E]2 [E,B,E]2 | [E,B,E]>[A,B,D] [G,B,E][F,B,F] [E,E]4 | %2
 [A,EA]>[A,EA] [A,EA][A,EA] [G,E][K:bass][E,B,E]D,E, | .B,,2 D,F, B,2 z2 | %4
 [E,G,B,]>[E,G,B,] [E,G,B,][B,,B,] [E,B,]2 [E,B,]2 | [C,A,]>[C,A,] [C,A,][B,,G,] [A,,A,]4 | %6
 [A,,C]>[A,,C] [A,,B,][A,,A,] [B,,G,]<B,, B,,>B,, | E,6 z2 | %8
 [E,B,]>[E,B,] [E,B,][E,B,] [E,B,][E,E][E,B,][E,B,] | [E,E]>[E,E] [E,E][E,E] [E,E]4 | %10
 [A,EA]>[A,EA] [A,EA][A,EA][K:bass] [F,E][F,C]F,F, | z4 B,2 z2 | E,>B,, E,B,, E,2 _D,2 | %13
 C,>C, C,[B,,G,] [A,,A,]4 | [A,,C]>[A,,C] [A,,B,][A,,A,] [B,,G,]<[B,,B,] [B,,A,]>[B,,B,] | %15
 [E,G,]2 [E,A,]>[E,A,] [E,G,]4 |] %16
V:3
 x8 | x8 | x8 | B,4 z4[K:bass] | x3[K:treble] x5 | x8 | x8 | x8 | x8 | x8 | x8 | %11
 [DB]2 [EGB]2 B2- [B,DB]2 | x2[K:treble] x6 | x8 | x8 | z2 C>C B,4 |] %16
V:4
 x8 | x8 | x5[K:bass] x3 | z B,,3- B,,2 z2 | x8 | x8 | x8 | x8 | x8 | x8 | x4[K:bass] x4 | %11
 B,2 B,2 z A,G,F, | x8 | x8 | x8 | x8 |] %16

